packages/ffe-icons/icons/open/400/sm/format_image_right.svg

<svg xmlns="http://www.w3.org/2000/svg" height="20" viewBox="0 -960 960 960" width="20"><path d="M468-288q-15.3 0-25.65-10.35Q432-308.7 432-324v-312q0-15.3 10.35-25.65Q452.7-672 468-672h312q15.3 0 25.65 10.35Q816-651.3 816-636v312q0 15.3-10.35 25.65Q795.3-288 780-288H468Zm36-72h240v-240H504v240ZM180-144q-15.3 0-25.65-10.289-10.35-10.29-10.35-25.5Q144-195 154.35-205.5 164.7-216 180-216h600q15.3 0 25.65 10.289 10.35 10.29 10.35 25.5Q816-165 805.65-154.5 795.3-144 780-144H180Zm.276-144Q165-288 154.5-298.289q-10.5-10.29-10.5-25.5Q144-339 154.334-349.5q10.334-10.5 25.611-10.5h143.779Q339-360 349.5-349.711q10.5 10.29 10.5 25.5Q360-309 349.666-298.5 339.332-288 324.055-288H180.276Zm0-156Q165-444 154.5-454.289q-10.5-10.29-10.5-25.5Q144-495 154.334-505.5q10.334-10.5 25.611-10.5h143.779Q339-516 349.5-505.711q10.5 10.29 10.5 25.5Q360-465 349.666-454.5 339.332-444 324.055-444H180.276Zm0-156Q165-600 154.5-610.289q-10.5-10.29-10.5-25.5Q144-651 154.334-661.5q10.334-10.5 25.611-10.5h143.779Q339-672 349.5-661.711q10.5 10.29 10.5 25.5Q360-621 349.666-610.5 339.332-600 324.055-600H180.276ZM180-744q-15.3 0-25.65-10.289-10.35-10.29-10.35-25.5Q144-795 154.35-805.5 164.7-816 180-816h600q15.3 0 25.65 10.289 10.35 10.29 10.35 25.5Q816-765 805.65-754.5 795.3-744 780-744H180Z"/></svg>

<svg xmlns="http://www.w3.org/2000/svg" height="20" viewBox="0 -960 960 960" width="20"><path d="M468-288q-15.3 0-25.65-10.35Q432-308.7 432-324v-312q0-15.3 10.35-25.65Q452.7-672 468-672h312q15.3 0 25.65 10.35Q816-651.3 816-636v312q0 15.3-10.35 25.65Q795.3-288 780-288H468Zm36-72h240v-240H504v240ZM180-144q-15.3 0-25.65-10.29Q144-164.58 144-179.79t10.35-25.71Q164.7-216 180-216h600q15.3 0 25.65 10.29Q816-195.42 816-180.21t-10.35 25.71Q795.3-144 780-144H180Zm.28-144q-15.28 0-25.78-10.29-10.5-10.29-10.5-25.5t10.33-25.71q10.34-10.5 25.61-10.5h143.78q15.28 0 25.78 10.29 10.5 10.29 10.5 25.5t-10.33 25.71Q339.33-288 324.06-288H180.28Zm0-156q-15.28 0-25.78-10.29-10.5-10.29-10.5-25.5t10.33-25.71q10.34-10.5 25.61-10.5h143.78q15.28 0 25.78 10.29 10.5 10.29 10.5 25.5t-10.33 25.71Q339.33-444 324.06-444H180.28Zm0-156q-15.28 0-25.78-10.29-10.5-10.29-10.5-25.5t10.33-25.71q10.34-10.5 25.61-10.5h143.78q15.28 0 25.78 10.29 10.5 10.29 10.5 25.5t-10.33 25.71Q339.33-600 324.06-600H180.28ZM180-744q-15.3 0-25.65-10.29Q144-764.58 144-779.79t10.35-25.71Q164.7-816 180-816h600q15.3 0 25.65 10.29Q816-795.42 816-780.21t-10.35 25.71Q795.3-744 780-744H180Z"/></svg>
